dist/svg/action-based/monitor_64.svg

<svg xmlns="http://www.w3.org/2000/svg" viewBox="0 0 64 64"><path d="M2 8v48h60V8H2zm58 46H4V18h56v36z"/><path d="M32 48c8.97 0 15.8-4.835 20-12-4.2-7.165-11.03-12-20-12s-15.8 4.835-20 12c4.2 7.165 11.03 12 20 12zm0-22c7.253 0 13.48 3.54 17.652 10C45.48 42.46 39.252 46 32 46c-7.253 0-13.48-3.54-17.652-10 4.17-6.46 10.4-10 17.652-10z"/><path d="M32 43c3.867 0 7-3.133 7-7s-3.133-7-7-7c-3.863 0-7 3.133-7 7s3.137 7 7 7zm0-9.334c1.293 0 2.332 1.045 2.332 2.334s-1.04 2.334-2.332 2.334S29.668 37.29 29.668 36s1.04-2.334 2.332-2.334z"/></svg>

<?xml version="1.0" encoding="iso-8859-1"?>
<!-- Generator: Adobe Illustrator 20.0.0, SVG Export Plug-In . SVG Version: 6.00 Build 0)  -->
<svg version="1.1" id="Layer_1" xmlns="http://www.w3.org/2000/svg" xmlns:xlink="http://www.w3.org/1999/xlink" x="0px" y="0px"
	 viewBox="0 0 64 64" style="enable-background:new 0 0 64 64;" xml:space="preserve">
<g>
	<g>
		<path d="M2,8v8v40h60V16V8H2z M60,54H4V18h56V54z"/>
	</g>
	<g>
		<path d="M32,48c8.969,0,15.801-4.835,20-12c-4.199-7.165-11.031-12-20-12c-8.969,0-15.801,4.835-20,12
			C16.199,43.165,23.031,48,32,48z M32,26c7.253,0,13.48,3.54,17.652,10C45.48,42.46,39.253,46,32,46
			c-7.253,0-13.481-3.54-17.652-10C18.519,29.54,24.747,26,32,26z"/>
	</g>
	<g>
		<path d="M32,43c3.867,0,7-3.133,7-7s-3.133-7-7-7c-3.863,0-7,3.133-7,7S28.137,43,32,43z M32,33.666
			c1.293,0,2.332,1.045,2.332,2.334S33.293,38.334,32,38.334S29.668,37.289,29.668,36S30.707,33.666,32,33.666z"/>
	</g>
</g>
</svg>
